img/foundation-icons/fi-target-two.svg

<svg xmlns="http://www.w3.org/2000/svg" width="100" height="100" viewBox="0 0 100 100"><path d="M94.988 47.506h-7.58c-1.23-18.72-16.193-33.684-34.914-34.915V5.01a2.494 2.494 0 0 0-4.987 0v7.58c-18.722 1.232-33.683 16.196-34.914 34.916h-7.58a2.494 2.494 0 0 0 0 4.988h7.58c1.228 18.722 16.19 33.684 34.914 34.914v7.58a2.494 2.494 0 0 0 4.987 0v-7.58c18.723-1.23 33.685-16.193 34.915-34.914h7.578a2.494 2.494 0 1 0 0-4.988zM47.506 77.443c-13.212-1.19-23.76-11.74-24.95-24.95h4.99c1.153 10.485 9.476 18.808 19.96 19.96v4.99zm0-49.896C37.022 28.7 28.7 37.022 27.546 47.507h-4.99c1.193-13.21 11.74-23.758 24.95-24.95v4.99zm4.988-4.99c13.21 1.192 23.756 11.74 24.948 24.95h-4.99c-1.15-10.486-9.474-18.81-19.958-19.96v-4.99zm0 54.886v-4.99c10.484-1.15 18.807-9.474 19.96-19.958h4.988c-1.19 13.21-11.737 23.756-24.948 24.948z"/></svg>

<?xml version="1.0" encoding="utf-8"?>
<!-- Generator: Adobe Illustrator 17.0.0, SVG Export Plug-In . SVG Version: 6.00 Build 0)  -->
<!DOCTYPE svg PUBLIC "-//W3C//DTD SVG 1.1//EN" "http://www.w3.org/Graphics/SVG/1.1/DTD/svg11.dtd">
<svg version="1.1" id="Layer_1" xmlns="http://www.w3.org/2000/svg" xmlns:xlink="http://www.w3.org/1999/xlink" x="0px" y="0px"
	 width="100px" height="100px" viewBox="0 0 100 100" enable-background="new 0 0 100 100" xml:space="preserve">
<g>
	<path d="M94.988,47.506h-7.58c-1.231-18.719-16.193-33.684-34.914-34.915v-7.58c0-1.377-1.117-2.493-2.494-2.493
		s-2.493,1.116-2.493,2.493v7.58c-18.722,1.231-33.683,16.195-34.914,34.915h-7.58c-1.377,0-2.493,1.117-2.493,2.494
		s1.116,2.494,2.493,2.494h7.579c1.229,18.722,16.191,33.684,34.915,34.914v7.58c0,1.377,1.117,2.493,2.494,2.493
		s2.493-1.116,2.493-2.493v-7.58c18.723-1.23,33.685-16.193,34.915-34.914h7.579c1.377,0,2.493-1.117,2.493-2.495
		C97.481,48.622,96.365,47.506,94.988,47.506z M47.506,77.443c-13.212-1.191-23.759-11.739-24.949-24.949h4.99
		c1.152,10.484,9.475,18.807,19.959,19.959V77.443z M47.506,27.547c-10.484,1.152-18.807,9.475-19.959,19.959h-4.99
		c1.192-13.208,11.738-23.757,24.948-24.949V27.547z M52.494,22.558c13.21,1.191,23.756,11.74,24.948,24.948h-4.989
		c-1.152-10.485-9.475-18.808-19.959-19.959V22.558z M52.494,77.443v-4.989c10.484-1.152,18.807-9.475,19.959-19.959h4.989
		C76.252,65.704,65.705,76.251,52.494,77.443z"/>
</g>
</svg>
